X: 1
T: Middle Of May, The
M: 6/8
L: 1/8
R: jig
K: Dmix
|: D>FA cBA | BAG AGF | D>FA cBA | d3 d2z |
e2e d2d | cdc BAG | A>BA GFE | D3 D2z :|
|: f2f gfe |fed e2d | f2f gfg | a3 a2z |
b2b a2a |gag f>ed | e>fg fec | d3 d2z :|
